X:1
T:Let Us Hear You Tell It
T:Let Us Hear You Tell It
T:John Marchant Whyte
T:John Marchant Whyte, 1889
T:Public Domain Courtesy of the Cyber Hymnal™
T:Public Domain Courtesy of the Cyber Hymnal™
T:Public Domain Courtesy of the Cyber Hymnal™
C:John Marchant Whyte
Z:Public Domain
Z:Courtesy of the Cyber Hymnal™
%%score ( 1 2 ) ( 3 4 )
L:1/8
Q:1/4=100
M:4/4
K:Ab
V:1 treble 
V:2 treble 
V:3 bass 
V:4 bass 
V:1
 [CE]2 | [EA][EA][EA][EA] [Ac]2 [CE][CE] | [DF]2 [DA]2 [CE]2 [CE][CE] | %3
w: 1.~O,|bro- ther, have you told how the|Lord for- gave? Let us|
w: 2.~When|toil- ing up the way, was the|Sav- ior there? Let us|
w: 3.~Was|ev- er on your tongue such a|bless- èd theme? Let us|
w: 4.~The|bat- tles you have fought, and the|vic- tories won, Let us|
 [EA][EA][EA][EA] [EA][EA] [EG]>[EA] | [EB]6 [CE]2 | [EA][EA][EA][EA] [Ac]2 [CE][CE] | %6
w: hear you tell it o- ver once a-|gain; Thy|com- ing to the cross, where He|
w: hear you tell it o- ver once a-|gain; Did|Je- sus bear you up in His|
w: hear you tell it o- ver once a-|gain; ’Tis|ev- er sweet- er far than the|
w: hear you tell it o- ver once a-|gain; ’Twill|help them on the way who have|
 [DF]2 [DA]2 [CE]2 [CE][CE] | [DF]D[DF][FA] [EG]E [DG]>[DB] | [CA]6 [EA][EA] | %9
w: died to save, Let us|hear you tell it o- ver once a-|gain. Are you|
w: ten- der care? Let us|hear you tell it o- ver once a-|gain. Ne- ver|
w: sweet- est dream. Let us|hear you tell it o- ver once a-|gain. There are|
w: just be- gun, Let us|hear you tell it o- ver once a-|gain. We are|
 [EG]2 [GB]2 [Gd]2 [CE][CE] | [EA]2 [Ac]2 [Ac]2 [Ac][Ac] | [GB]2 [GB]2 [GB][FA][EG][=DF] | %12
w: walk- ing now in His|bless- èd light? Are you|cleansed from ev- ery guilt- y|
w: have you found such a|friend as He, Who can|help you ’midst the toil and|
w: ach- ing hearts in the|world’s great throng, Who have|sought for rest and all in|
w: striv- ing now with the|hosts of sin, Soon with|Christ our Sav- ior we shall|
 [EG]6 [CE]2 | [EA][EA][EA][EA] [Ac]2 [CE][CE] | [DF]2 [DA]2 [CE]2 [CE][CE] | %15
w: stain? Is|He your joy by day, and your|song by night? Let us|
w: pain; O|all the world should hear what He’s|done for thee; Let us|
w: vain. Hold|Je- sus up to them by your|word and song; Let us|
w: reign; Ye|ran- somed of the Lord, try a|soul to win; Let us|
 [DF]D[DF][FA] [EG]E [DG]>[DB] | [CA]6 ||"^Refrain" [Ac]>[Bd] | [ce]2- [ce]3 [Ac][df][ce] | %19
w: hear you tell it o- ver once a-|gain.|||
w: hear you tell it o- ver once a-|gain.|Let us|hear * you tell it|
w: hear you tell it o- ver once a-|gain.|||
w: hear you tell it o- ver once a-|gain.|||
 [ce]2 [Bd]4 [GB][Ac] | [Bd]2- [Bd]3 [Ac] [ce]>[Bd] | [Ac]6 [CE][CE] | [DF]2 [FA]2 [Fd]3 [DF] | %23
w: ||||
w: o- ver, Tell it|o- * ver once a-|gain; Tell the|sweet and bless- èd|
w: ||||
w: ||||
 [DF]2 [CE]4 [CE][CE] | [EA]2 [Ac]2 [Ac]3 [Ae] | [Ae]2 [Gd]4 [CE][CE] | %26
w: |||
w: sto- ry, It will|help you on to|glo- ry, Let us|
w: |||
w: |||
 [DF]D[DF][FA] [EG]E [DG]>[DB] | [CA]6 |] %28
w: ||
w: hear you tell it o- ver once a-|gain.|
w: ||
w: ||
V:2
 x2 | x8 | x8 | x8 | x8 | x8 | x8 | x D x2 E x3 | x8 | x8 | x8 | x8 | x8 | x8 | x8 | x D x2 E x3 | %16
 x6 || x2 | x8 | x8 | x8 | x8 | x8 | x8 | x8 | x8 | x D x2 E x3 | x6 |] %28
V:3
 [E,A,]2 | [A,C][A,C][A,C][A,C] [A,E]2 [C,A,][C,A,] | [D,A,]2 [D,A,]2 [A,,A,]2 A,A, | %3
w: ~|~ ~ ~ ~ ~ ~ ~|~ ~ ~ ~ ~|
 [A,C][A,C][A,C][A,C] [A,C][A,C] [E,B,]>[E,C] | [E,D]6 [E,A,]2 | %5
w: ~ ~ ~ ~ ~ ~ ~ ~|~ ~|
 [A,C][A,C][A,C][A,C] [A,E]2 [E,A,][E,A,] | [D,A,]2 [D,A,]2 [A,,A,]2 [C,A,][C,A,] | %7
w: ~ ~ ~ ~ ~ ~ ~|~ ~ ~ ~ ~|
 [D,A,][D,A,][D,A,][D,A,] [E,B,][E,B,] [E,B,]>[E,B,] | [A,,A,]6 [A,C][A,C] | %9
w: ~ ~ ~ ~ ~ ~ ~ ~|~ ~ ~|
 [E,B,]2 [E,D]2 [E,B,]2 [E,A,][E,A,] | [A,C]2 [A,E]2 [A,E]2 [A,E][A,E] | %11
w: ~ ~ ~ ~ ~|~ ~ ~ ~ ~|
 [B,E]2 [B,E]2 [B,,E][B,,B,][B,,B,][B,,B,] | [E,B,]6 [E,A,]2 | %13
w: ~ ~ ~ ~ ~ ~|~ ~|
 [A,C][A,C][A,C][A,C] [A,E]2 [C,A,][C,A,] | [D,A,]2 [D,A,]2 [A,,A,]2 [C,A,][C,A,] | %15
w: ~ ~ ~ ~ ~ ~ ~|~ ~ ~ ~ ~|
 [D,A,][D,A,][D,A,][D,A,] [E,B,][E,B,] [E,B,]>[E,B,] | [A,,A,]6 || z2 | %18
w: ~ ~ ~ ~ ~ ~ ~ ~|~||
 z2 [A,C][A,C] [A,C][A,C][A,D][A,C] | [E,C][E,C] [E,E]>[E,E] [E,E]2 z2 | %20
w: Let us hear you tell it|o- ver once a- gain,|
 z2 [E,E][E,E] [E,E][E,E][E,E][E,E] | [A,E][A,E] [A,E]>[A,E] [A,E]2 [A,,A,][A,,A,] | %22
w: tell it o- ver, tell it|o- ver once a- gain, * *|
 [D,A,]2 [D,A,]2 [D,A,]3 [D,A,] | [A,,A,]2 [A,,A,]4 [A,,A,][A,,A,] | [A,C]2 [A,E]2 [A,E]3 [A,C] | %25
w: |||
 [E,C]2 [E,B,]4 [C,A,][C,A,] | [D,A,][D,A,][D,A,][D,A,] [E,B,][E,B,] [E,B,]>[E,B,] | [A,,A,]6 |] %28
w: |||
V:4
 x2 | x8 | x6 A,A, | x8 | x8 | x8 | x8 | x8 | x8 | x8 | x8 | x8 | x8 | x8 | x8 | x8 | x6 || x2 | %18
 x8 | x8 | x8 | x8 | x8 | x8 | x8 | x8 | x8 | x6 |] %28

